X:1
T:Title
%%score { ( 1 3 4 ) | ( 2 5 ) }
L:1/8
Q:1/4=100
M:4/4
K:Bb
V:1 treble nm="Grand Piano"
V:3 treble 
V:4 treble 
V:2 bass 
V:5 bass 
V:1
 [DF]3 [DF] [DF]2 [EG]2 | [DB]3 [DB] [DB]2 [Ec]2 | d3 d dcBc | [Fd]4 [DB]4 | %4
w: J.~R.~Sweney * * *||||
 [DF]3 [DF] [DF]2 [EG]2 | [DB]3 [DB] [DB]2 [Ec]2 | d3 d dcBA | [DB]6 z2 | %8
w: ||||
 [Ge]3 [Ge] [Ge][Ge][Fd][Ec] | [Fd]4 z4 | [=Ec]3 [Ec] [Ed][Fc][EB][CEG] | z4 c4[K:bass] | %12
w: ||||
 [DF]3 [DF] [DF]2 [EG]2 | [DB]3 [DB] [DB]2 [Ec]2 | %14
w: ||
 d3 d d<c B<A[Q:1/4=97][Q:1/4=94][Q:1/4=91][Q:1/4=88][Q:1/4=84][Q:1/4=81][Q:1/4=78] | [DB]6 z2 |] %16
w: ||
V:2
 [B,,B,]3 [B,,B,] [B,,B,]2 [B,,B,]2 | [B,,F,]3 [B,,F,] [B,,F,]2 [B,,F,]2 | %2
 [F,F]3 [F,F] [F,F][F,E][F,D][F,E] | [B,,F,]8 | [B,,B,]3 [B,,B,] [B,,B,]2 [B,,B,]2 | %5
 [B,,F,]3 [B,,F,] [B,,F,]2 [B,,F,]2 | [F,B,F]3 [F,B,F] [F,B,F][F,EF][F,DF][F,CE] | [B,,B,]6 z2 | %8
 [E,B,]3 [E,B,] [E,B,][E,B,][E,B,][G,B,] | [B,,B,]B,,B,,B,, [B,,B,] [B,,B,]3 | %10
 [C,B,]3 [C,B,] [C,B,][C,A,][C,G,]C, | z4 A,4 | [B,,B,]3 [B,,B,] [B,,B,]2 [B,,B,]2 | %13
 [B,,F,]3 [B,,F,] [B,,F,]2 [B,,F,]2 | [F,B,F]3 [F,B,F] [F,B,F]<[F,EF] [F,DF]<[F,CE] | %15
 [B,,B,]6 z2 |] %16
V:3
 x8 | x8 | x8 | x8 | x8 | x8 | x8 | x8 | x8 | z B,B,B, [Fd]4 | x8 | [F-A]4 F2[K:bass] z2 | x8 | %13
 x8 | x8 | x8 |] %16
V:4
 x8 | x8 | x8 | x8 | x8 | x8 | x8 | x8 | x8 | x8 | x8 | CCCC z[K:bass] E, E2 | x8 | x8 | x8 | x8 |] %16
V:5
 x8 | x8 | x8 | x8 | x8 | x8 | x8 | x8 | x8 | x8 | x8 | F,F,F,F, .F,2 D,C, | x8 | x8 | x8 | x8 |] %16

